X:61
T:Charming Fellow. THO5.061, The
T:Corn Riggs,aka. THO5.061
M:2/4
L:1/8
B:Thompson's Complete Collection of 200 Favourite Dances Vol.5
F:https://www.libraryofdance.org/manuals/1780c-Thompson-Compleat-5.pdf
Z:vmp. Peter Dunk 2024
Q:1/4=100
K:D
dd g/f/e/d/|c/d/e/f/ eA|dd g/f/e/f/|d2 aa|
dd g/f/e/d/|c/d/e/f/ eA|B/c/d/B/ e/d/c/B/|A2 dd:|
da f/a/f/d/|ce c/e/c/A/|da f/g/a/f/|d2 aa|
(d/f/)(a/f/) (b/a/)(g/f/)|(g/f/e/d/) (d/c/B/A/)|\\
(B/c/d/B/) (e/d/c/B/)|A2 dd:|
W:
W:The 1st & 2nd Couple change sides and back again ./.
W:Lesd down the middle, up again and cast off ./:
W:Set 3&3 top and bottom, then sideways :/.
W:Hands six quite round :/:

